X: 13
T: Cucanandy
R:slip jig
M:9/8
K:Edor
"G"~B3 B2A G2A|"G"B2d d2c d3|~B3 B2A G2A|"Em"B2e e2d e3:|
"Em"e2f g2f g3|"G"B2d d2c d3|"Em" e2f g2f g3|B2e e2d e3|
"Em"e2f g2f g3|"G"B2d d2c d3|"Em"e2B B2A G2A|B2e e2d e3|]


